X: 246
T: A Like For All But Love For None
R: slip jig
M: 9/8
K: Amajor
|:C2E AEC AEC|D2E GAB Bcd|c2A age edc|d2d Bcd efg|
a2e edc cAE|F2E EFA B3|c3 BcB AFE|1 F3 -FB/c/d cAE:|2 F3 -FB/c/d cde||
|:f2c acb afe|d2A aAb afe|A2c eAe fcA|G2e eAf efg|f2c acb afe|
d2A aAb afe|1 a2e edc edc|cdd def efg:|2 a3 e2B cde|d3 ded cAE||

